icons/Business/send-plane-fill.svg

<svg viewBox="0 0 24 24" xmlns="http://www.w3.org/2000/svg"><path d="M1.94631 9.31555C1.42377 9.14137 1.41965 8.86034 1.95706 8.6812L21.0433 2.31913C21.5717 2.14297 21.8748 2.43878 21.7268 2.95706L16.2736 22.0433C16.1226 22.5718 15.8179 22.5901 15.5946 22.0877L12.0002 14.0002L18.0002 6.00017L10.0002 12.0002L1.94631 9.31555Z"/></svg>

<svg xmlns="http://www.w3.org/2000/svg" viewBox="0 0 24 24">
    <g>
        <path fill="none" d="M0 0h24v24H0z"/>
        <path d="M1.946 9.315c-.522-.174-.527-.455.01-.634l19.087-6.362c.529-.176.832.12.684.638l-5.454 19.086c-.15.529-.455.547-.679.045L12 14l6-8-8 6-8.054-2.685z"/>
    </g>
</svg>
